flaticon/file-type/json-file.svg

<svg xmlns="http://www.w3.org/2000/svg" width="32" height="32" viewBox="0 0 24 24">
    <path d="M 21.082031 5.042969 L 16.265625 0.226562 C 16.121094 0.0820312 15.925781 0 15.71875 0 L 3.707031 0 C 3.21875 0 2.691406 0.378906 2.691406 1.210938 L 2.691406 23.171875 C 2.691406 23.519531 3.039062 23.855469 3.449219 23.960938 C 3.46875 23.96875 3.492188 23.976562 3.511719 23.980469 C 3.578125 23.992188 3.644531 24 3.707031 24 L 20.292969 24 C 20.355469 24 20.421875 23.992188 20.488281 23.980469 C 20.507812 23.976562 20.53125 23.96875 20.550781 23.960938 C 20.960938 23.855469 21.308594 23.519531 21.308594 23.171875 L 21.308594 5.785156 C 21.308594 5.464844 21.273438 5.230469 21.082031 5.042969 Z M 16.34375 1.476562 L 19.835938 4.964844 L 16.34375 4.964844 Z M 3.707031 23.171875 C 3.679688 23.171875 3.652344 23.160156 3.625 23.152344 C 3.5625 23.121094 3.515625 23.058594 3.515625 22.980469 L 3.515625 16.964844 L 20.484375 16.964844 L 20.484375 22.980469 C 20.484375 23.058594 20.4375 23.121094 20.375 23.152344 C 20.347656 23.160156 20.320312 23.171875 20.292969 23.171875 Z M 3.515625 16.136719 L 3.515625 1.210938 C 3.515625 1.121094 3.53125 0.828125 3.707031 0.828125 L 15.542969 0.828125 C 15.527344 0.878906 15.515625 0.933594 15.515625 0.988281 L 15.515625 5.703125 C 15.296875 5.503906 15.007812 5.378906 14.691406 5.378906 C 14.460938 5.378906 14.277344 5.566406 14.277344 5.792969 C 14.277344 6.023438 14.460938 6.207031 14.691406 6.207031 C 14.917969 6.207031 15.101562 6.394531 15.101562 6.621094 L 15.101562 8.277344 C 15.101562 8.773438 15.328125 9.214844 15.675781 9.515625 C 15.328125 9.820312 15.101562 10.261719 15.101562 10.757812 L 15.101562 12.414062 C 15.101562 12.640625 14.917969 12.828125 14.691406 12.828125 C 14.460938 12.828125 14.277344 13.011719 14.277344 13.242188 C 14.277344 13.46875 14.460938 13.65625 14.691406 13.65625 C 15.375 13.65625 15.929688 13.097656 15.929688 12.414062 L 15.929688 10.757812 C 15.929688 10.300781 16.300781 9.929688 16.757812 9.929688 C 16.988281 9.929688 17.171875 9.746094 17.171875 9.515625 C 17.171875 9.289062 16.988281 9.101562 16.757812 9.101562 C 16.300781 9.101562 15.929688 8.730469 15.929688 8.277344 L 15.929688 6.621094 C 15.929688 6.300781 15.804688 6.011719 15.609375 5.792969 L 20.320312 5.792969 C 20.375 5.792969 20.429688 5.78125 20.484375 5.769531 C 20.484375 5.773438 20.484375 5.777344 20.484375 5.785156 L 20.484375 16.136719 Z M 3.515625 16.136719"/>
    <path d="M6.765625 21.28125C6.757812 21.464844 6.695312 21.597656 6.578125 21.675781 6.457031 21.75 6.300781 21.789062 6.101562 21.789062 6.019531 21.789062 5.9375 21.78125 5.84375 21.761719 5.753906 21.742188 5.667969 21.722656 5.585938 21.695312 5.503906 21.671875 5.425781 21.644531 5.355469 21.617188 5.285156 21.589844 5.230469 21.5625 5.195312 21.535156L4.90625 21.996094C4.980469 22.050781 5.074219 22.101562 5.183594 22.148438 5.292969 22.191406 5.40625 22.234375 5.523438 22.269531 5.644531 22.304688 5.757812 22.332031 5.871094 22.347656 5.980469 22.363281 6.078125 22.375 6.160156 22.375 6.328125 22.375 6.488281 22.355469 6.644531 22.324219 6.800781 22.292969 6.941406 22.238281 7.0625 22.15625 7.183594 22.074219 7.277344 21.96875 7.351562 21.832031 7.421875 21.699219 7.457031 21.535156 7.457031 21.339844L7.457031 18.089844 6.765625 18.089844zM10.378906 20.300781C10.25 20.207031 10.109375 20.128906 9.957031 20.0625 9.804688 19.996094 9.667969 19.929688 9.539062 19.859375 9.410156 19.789062 9.304688 19.707031 9.214844 19.613281 9.128906 19.523438 9.085938 19.402344 9.085938 19.25 9.085938 19.191406 9.101562 19.125 9.132812 19.0625 9.160156 18.996094 9.203125 18.933594 9.257812 18.882812 9.308594 18.828125 9.367188 18.785156 9.4375 18.75 9.503906 18.714844 9.578125 18.691406 9.652344 18.683594 9.789062 18.671875 9.898438 18.671875 9.988281 18.679688 10.074219 18.6875 10.144531 18.699219 10.195312 18.71875 10.25 18.738281 10.289062 18.757812 10.316406 18.773438 10.34375 18.792969 10.371094 18.808594 10.394531 18.820312 10.398438 18.816406 10.410156 18.796875 10.429688 18.761719 10.445312 18.730469 10.46875 18.6875 10.496094 18.636719 10.523438 18.585938 10.550781 18.53125 10.582031 18.472656 10.609375 18.414062 10.636719 18.359375 10.660156 18.3125 10.550781 18.238281 10.40625 18.1875 10.230469 18.15625 10.050781 18.125 9.875 18.105469 9.703125 18.105469 9.535156 18.105469 9.371094 18.132812 9.21875 18.1875 9.066406 18.238281 8.933594 18.316406 8.816406 18.414062 8.703125 18.515625 8.613281 18.636719 8.542969 18.78125 8.476562 18.925781 8.441406 19.089844 8.441406 19.273438 8.441406 19.476562 8.484375 19.644531 8.570312 19.78125 8.660156 19.917969 8.765625 20.035156 8.898438 20.136719 9.03125 20.234375 9.171875 20.320312 9.324219 20.394531 9.472656 20.46875 9.613281 20.542969 9.746094 20.617188 9.875 20.691406 9.984375 20.773438 10.070312 20.863281 10.15625 20.953125 10.199219 21.0625 10.199219 21.191406 10.199219 21.402344 10.140625 21.5625 10.015625 21.667969 9.894531 21.777344 9.71875 21.828125 9.488281 21.828125 9.414062 21.828125 9.332031 21.820312 9.246094 21.808594 9.15625 21.792969 9.070312 21.773438 8.984375 21.746094 8.898438 21.722656 8.8125 21.695312 8.734375 21.667969 8.652344 21.640625 8.585938 21.609375 8.53125 21.582031L8.414062 22.066406C8.476562 22.125 8.554688 22.171875 8.640625 22.210938 8.730469 22.25 8.824219 22.28125 8.921875 22.304688 9.019531 22.328125 9.117188 22.34375 9.214844 22.351562 9.308594 22.363281 9.402344 22.367188 9.492188 22.367188 9.707031 22.367188 9.894531 22.335938 10.058594 22.269531 10.226562 22.207031 10.363281 22.121094 10.476562 22.015625 10.59375 21.90625 10.679688 21.78125 10.742188 21.640625 10.804688 21.5 10.835938 21.351562 10.835938 21.203125 10.835938 20.980469 10.792969 20.796875 10.707031 20.65625 10.617188 20.515625 10.507812 20.398438 10.378906 20.300781zM14.429688 18.652344C14.273438 18.472656 14.089844 18.339844 13.882812 18.246094 13.671875 18.152344 13.441406 18.105469 13.195312 18.105469 12.945312 18.105469 12.714844 18.152344 12.507812 18.246094 12.296875 18.339844 12.113281 18.472656 11.957031 18.652344 11.800781 18.828125 11.679688 19.050781 11.589844 19.316406 11.5 19.582031 11.457031 19.890625 11.457031 20.238281 11.457031 20.589844 11.5 20.898438 11.589844 21.167969 11.679688 21.433594 11.800781 21.65625 11.957031 21.835938 12.113281 22.011719 12.296875 22.144531 12.507812 22.238281 12.714844 22.328125 12.945312 22.371094 13.195312 22.371094 13.441406 22.371094 13.671875 22.328125 13.882812 22.238281 14.089844 22.144531 14.273438 22.011719 14.429688 21.835938 14.585938 21.65625 14.710938 21.433594 14.796875 21.167969 14.886719 20.898438 14.929688 20.589844 14.929688 20.238281 14.929688 19.890625 14.886719 19.582031 14.796875 19.316406 14.710938 19.050781 14.585938 18.828125 14.429688 18.652344zM14.148438 20.976562C14.09375 21.179688 14.015625 21.34375 13.914062 21.46875 13.816406 21.59375 13.703125 21.683594 13.574219 21.738281 13.449219 21.789062 13.316406 21.820312 13.175781 21.820312 13.042969 21.820312 12.910156 21.789062 12.789062 21.730469 12.667969 21.671875 12.558594 21.582031 12.460938 21.453125 12.363281 21.328125 12.289062 21.164062 12.234375 20.964844 12.179688 20.765625 12.152344 20.523438 12.148438 20.238281 12.152344 19.949219 12.179688 19.703125 12.238281 19.503906 12.292969 19.304688 12.371094 19.140625 12.472656 19.015625 12.570312 18.886719 12.683594 18.800781 12.8125 18.746094 12.9375 18.695312 13.070312 18.667969 13.210938 18.667969 13.347656 18.667969 13.476562 18.695312 13.597656 18.753906 13.71875 18.808594 13.832031 18.902344 13.925781 19.03125 14.023438 19.15625 14.097656 19.320312 14.152344 19.519531 14.207031 19.71875 14.238281 19.957031 14.242188 20.242188 14.238281 20.53125 14.207031 20.777344 14.148438 20.976562zM18.210938 21.050781L16.578125 18.175781 15.886719 18.175781 15.886719 22.34375 16.578125 22.34375 16.578125 19.472656 18.210938 22.34375 18.902344 22.34375 18.902344 18.175781 18.210938 18.175781zM8.484375 8.277344L8.484375 6.621094C8.484375 6.394531 8.667969 6.207031 8.898438 6.207031 9.125 6.207031 9.308594 6.023438 9.308594 5.792969 9.308594 5.566406 9.125 5.378906 8.898438 5.378906 8.210938 5.378906 7.65625 5.9375 7.65625 6.621094L7.65625 8.277344C7.65625 8.730469 7.285156 9.101562 6.828125 9.101562 6.597656 9.101562 6.414062 9.289062 6.414062 9.515625 6.414062 9.746094 6.597656 9.929688 6.828125 9.929688 7.285156 9.929688 7.65625 10.300781 7.65625 10.757812L7.65625 12.414062C7.65625 13.097656 8.210938 13.65625 8.898438 13.65625 9.125 13.65625 9.308594 13.46875 9.308594 13.242188 9.308594 13.011719 9.125 12.828125 8.898438 12.828125 8.667969 12.828125 8.484375 12.640625 8.484375 12.414062L8.484375 10.757812C8.484375 10.261719 8.257812 9.820312 7.910156 9.515625 8.257812 9.214844 8.484375 8.773438 8.484375 8.277344zM12.414062 8.070312C12.414062 8.410156 12.136719 8.691406 11.792969 8.691406 11.449219 8.691406 11.171875 8.410156 11.171875 8.070312 11.171875 7.726562 11.449219 7.449219 11.792969 7.449219 12.136719 7.449219 12.414062 7.726562 12.414062 8.070312zM11.792969 10.34375C11.5625 10.34375 11.378906 10.53125 11.378906 10.757812L11.378906 12C11.378906 12.226562 11.5625 12.414062 11.792969 12.414062 12.023438 12.414062 12.207031 12.226562 12.207031 12L12.207031 10.757812C12.207031 10.53125 12.023438 10.34375 11.792969 10.34375zM11.792969 10.34375"/>
</svg>

<svg xmlns="http://www.w3.org/2000/svg" width="32" height="32" viewBox="0 0 24 24">
    <path d="M21.082 5.043L16.266.227A.771.771 0 0 0 15.719 0H3.707c-.488 0-1.016.379-1.016 1.21v21.962c0 .348.348.683.758.789.02.008.043.016.063.02.066.011.133.019.195.019h16.586c.062 0 .129-.008.195-.02a.384.384 0 0 0 .063-.02c.41-.105.758-.44.758-.788V5.785c0-.32-.036-.555-.227-.742zm-4.738-3.566l3.492 3.488h-3.492zM3.707 23.172c-.027 0-.055-.012-.082-.02a.192.192 0 0 1-.11-.172v-6.015h16.97v6.015c0 .079-.047.141-.11.172-.027.008-.055.02-.082.02zm-.191-7.035V1.21c0-.09.015-.383.191-.383h11.836a.55.55 0 0 0-.027.16v4.715a1.224 1.224 0 0 0-.825-.324.414.414 0 0 0 0 .828c.227 0 .41.188.41.414v1.656c0 .496.227.938.575 1.239a1.65 1.65 0 0 0-.574 1.242v1.656a.413.413 0 0 1-.41.414.414.414 0 0 0 0 .828c.683 0 1.238-.558 1.238-1.242v-1.656c0-.457.37-.828.828-.828a.414.414 0 0 0 0-.828.828.828 0 0 1-.828-.825V6.621c0-.32-.125-.61-.32-.828h4.71c.055 0 .11-.012.164-.023v10.367zm0 0"/>
    <path d="M6.766 21.281c-.008.184-.07.317-.188.395a.896.896 0 0 1-.476.113c-.082 0-.165-.008-.258-.027-.09-.02-.176-.04-.258-.067a2.644 2.644 0 0 1-.23-.078.665.665 0 0 1-.16-.082l-.29.461c.074.055.168.106.278.152.109.043.222.086.34.122a2.442 2.442 0 0 0 .636.105c.168 0 .328-.02.485-.05.156-.032.296-.087.418-.169a.894.894 0 0 0 .289-.324c.07-.133.105-.297.105-.492v-3.25h-.691zm0 0M10.379 20.3a2.22 2.22 0 0 0-.422-.238 5.23 5.23 0 0 1-.418-.203 1.313 1.313 0 0 1-.324-.246.504.504 0 0 1-.082-.55.515.515 0 0 1 .125-.18.614.614 0 0 1 .18-.133.598.598 0 0 1 .214-.066c.137-.012.246-.012.336-.004.086.008.157.02.207.039a.75.75 0 0 1 .121.054c.028.02.055.036.079.047a.496.496 0 0 0 .035-.058c.015-.032.039-.075.066-.125l.086-.164c.027-.059.055-.114.078-.16a1.11 1.11 0 0 0-.43-.157 3.087 3.087 0 0 0-.527-.05c-.168 0-.332.027-.484.081-.153.051-.285.13-.403.227a1.173 1.173 0 0 0-.273.367 1.166 1.166 0 0 0-.102.492c0 .204.043.372.13.508.09.137.195.254.327.356.133.097.274.183.426.258.149.074.29.148.422.222.129.074.238.156.324.246.086.09.13.2.13.328 0 .211-.06.372-.184.477-.121.11-.297.16-.528.16-.074 0-.156-.008-.242-.02a1.513 1.513 0 0 1-.715-.227l-.117.485c.063.059.14.106.227.145.09.039.183.07.28.094.099.023.196.039.294.047.094.011.187.015.277.015.215 0 .403-.031.567-.097.168-.063.304-.149.418-.254a1.135 1.135 0 0 0 .359-.813 1.04 1.04 0 0 0-.129-.547 1.36 1.36 0 0 0-.328-.355zm0 0M14.43 18.652a1.577 1.577 0 0 0-.547-.406 1.678 1.678 0 0 0-.688-.14c-.25 0-.48.046-.687.14-.211.094-.395.227-.551.406a1.904 1.904 0 0 0-.367.664c-.09.266-.133.575-.133.922 0 .352.043.66.133.93.09.266.21.488.367.668.156.176.34.309.55.402.208.09.438.133.688.133.246 0 .477-.043.688-.133.207-.093.39-.226.547-.402.156-.18.28-.402.367-.668.09-.27.133-.578.133-.93 0-.347-.043-.656-.133-.922a1.844 1.844 0 0 0-.367-.664zm-.282 2.325a1.313 1.313 0 0 1-.234.492.855.855 0 0 1-.34.27c-.125.05-.258.081-.398.081a.89.89 0 0 1-.387-.09.905.905 0 0 1-.328-.277 1.382 1.382 0 0 1-.227-.488 2.94 2.94 0 0 1-.086-.727c.004-.289.032-.535.09-.734.055-.2.133-.363.235-.488a.822.822 0 0 1 .34-.27 1.05 1.05 0 0 1 .398-.078c.137 0 .266.027.387.086a.84.84 0 0 1 .328.277c.097.125.172.29.226.489.055.199.086.437.09.722-.004.29-.035.535-.094.735zm0 0M18.21 21.05l-1.632-2.874h-.691v4.168h.691v-2.871l1.633 2.87h.691v-4.167h-.691zm0 0M8.484 8.277V6.621c0-.226.184-.414.414-.414.227 0 .41-.184.41-.414a.413.413 0 0 0-.41-.414c-.687 0-1.242.559-1.242 1.242v1.656a.828.828 0 0 1-.828.825.414.414 0 0 0 0 .828c.457 0 .828.37.828.828v1.656c0 .684.555 1.242 1.242 1.242.227 0 .41-.187.41-.414a.411.411 0 0 0-.41-.414.414.414 0 0 1-.414-.414v-1.656a1.65 1.65 0 0 0-.574-1.242c.348-.301.574-.743.574-1.239zm0 0M12.414 8.07c0 .34-.277.621-.621.621a.62.62 0 1 1 .621-.621zm0 0M11.793 10.344a.414.414 0 0 0-.414.414V12a.414.414 0 0 0 .828 0v-1.242a.414.414 0 0 0-.414-.414zm0 0"/>
</svg>
